X:62
T:Brumby’s Hornpipe,aka. JBu.62
O:England,South Yorkshire
S:Joshua Burnett’s MS,c1835,S.Yorkshire
M:2/4
L:1/16
Q:1/4=90
C:unnamed in MS, named by Paul Davenport
R:.hornpipe
Z:vmp.R.Greig.2011
K:A
ed|(cB)cd (BA)Bc|AGAF E2 AB|cAdB e2 AB|cdec B2 ed|
(cB)cd (BA)Bc|AGAF E2 AB|(ce)ce (fd)BG|A2A2A2:|
fg|aAgA fAeA|dcBA G2 ed|(ce)fe (ce)fe|dcBA B2 fg|
aAgA fAeA|dcBA G2 ed|(ce)ae (fd)BG|A2A2A2:|

